SVG_Azure_All/Budget.svg

<?xml version="1.0" encoding="UTF-8" standalone="no"?>
<!-- Generated by Microsoft Visio, SVG Export Budget.svg Page-1 -->

<svg
   xmlns:dc="http://purl.org/dc/elements/1.1/"
   xmlns:cc="http://creativecommons.org/ns#"
   xmlns:rdf="http://www.w3.org/1999/02/22-rdf-syntax-ns#"
   xmlns:svg="http://www.w3.org/2000/svg"
   xmlns="http://www.w3.org/2000/svg"
   xmlns:sodipodi="http://sodipodi.sourceforge.net/DTD/sodipodi-0.dtd"
   xmlns:inkscape="http://www.inkscape.org/namespaces/inkscape"
   width="0.73654646in"
   height="0.74473584in"
   viewBox="0 0 53.031305 53.621252"
   xml:space="preserve"
   class="st4"
   version="1.1"
   id="svg79"
   sodipodi:docname="Budget.svg"
   style="font-size:12px;overflow:visible;color-interpolation-filters:sRGB;fill:none;fill-rule:evenodd;stroke-linecap:square;stroke-miterlimit:3"
   inkscape:version="0.92.5 (2060ec1f9f, 2020-04-08)"><metadata
   id="metadata85"><rdf:RDF><cc:Work
       rdf:about=""><dc:format>image/svg+xml</dc:format><dc:type
         rdf:resource="http://purl.org/dc/dcmitype/StillImage" /></cc:Work></rdf:RDF></metadata><defs
   id="defs83" /><sodipodi:namedview
   pagecolor="#ffffff"
   bordercolor="#666666"
   borderopacity="1"
   objecttolerance="10"
   gridtolerance="10"
   guidetolerance="10"
   inkscape:pageopacity="0"
   inkscape:pageshadow="2"
   inkscape:window-width="640"
   inkscape:window-height="480"
   id="namedview81"
   showgrid="false"
   inkscape:zoom="1.7193066"
   inkscape:cx="35.35322"
   inkscape:cy="19.182228"
   inkscape:window-x="0"
   inkscape:window-y="0"
   inkscape:window-maximized="0"
   inkscape:current-layer="svg79" />
	<style
   type="text/css"
   id="style2">
	<![CDATA[
		.st1 {fill:#ff8c00;stroke:none;stroke-linecap:butt;stroke-width:12.24}
		.st2 {fill:#57a300;fill-opacity:0.2;stroke:none;stroke-linecap:butt;stroke-width:12.24}
		.st3 {fill:#57a300;stroke:none;stroke-linecap:butt;stroke-width:12.24}
		.st4 {fill:none;fill-rule:evenodd;font-size:12px;overflow:visible;stroke-linecap:square;stroke-miterlimit:3}
	]]>
	</style>

	<g
   id="g77"
   transform="translate(-12.240227,-12.239991)">
		<title
   id="title4">Page-1</title>
		<g
   id="group7199-1"
   transform="translate(12.24,-34.0157)">
			<title
   id="title6">Budget</title>
			<g
   id="group7200-2">
				<title
   id="title8">g30</title>
				<g
   id="shape7201-3"
   transform="translate(16.2509,-50.2413)">
					<title
   id="title10">circle4</title>
					<ellipse
   cx="3.1949301"
   cy="99.722801"
   rx="3.1949301"
   ry="3.2258101"
   class="st1"
   id="ellipse12"
   style="fill:#ff8c00;stroke:none;stroke-width:12.23999977;stroke-linecap:butt" />
				</g>
				<g
   id="shape7202-5"
   transform="translate(0,-26.1762)">
					<title
   id="title15">circle6</title>
					<ellipse
   cx="3.1949301"
   cy="99.722801"
   rx="3.1949301"
   ry="3.2258101"
   class="st1"
   id="ellipse17"
   style="fill:#ff8c00;stroke:none;stroke-width:12.23999977;stroke-linecap:butt" />
				</g>
				<g
   id="shape7203-7"
   transform="translate(1.08339,-37.1149)">
					<title
   id="title20">circle8</title>
					<ellipse
   cx="3.1949301"
   cy="99.722801"
   rx="3.1949301"
   ry="3.2258101"
   class="st1"
   id="ellipse22"
   style="fill:#ff8c00;stroke:none;stroke-width:12.23999977;stroke-linecap:butt" />
				</g>
				<g
   id="shape7204-9"
   transform="translate(6.50036,-45.8658)">
					<title
   id="title25">circle10</title>
					<ellipse
   cx="3.1949301"
   cy="99.722801"
   rx="3.1949301"
   ry="3.2258101"
   class="st1"
   id="ellipse27"
   style="fill:#ff8c00;stroke:none;stroke-width:12.23999977;stroke-linecap:butt" />
				</g>
				<g
   id="shape7205-11"
   transform="translate(16.2509,-50.2413)">
					<title
   id="title30">circle12</title>
					<ellipse
   cx="3.1949301"
   cy="99.722801"
   rx="3.1949301"
   ry="3.2258101"
   class="st2"
   id="ellipse32"
   style="fill:#57a300;fill-opacity:0.2;stroke:none;stroke-width:12.23999977;stroke-linecap:butt" />
				</g>
				<g
   id="shape7206-13"
   transform="translate(0,-26.1762)">
					<title
   id="title35">circle14</title>
					<ellipse
   cx="3.1949301"
   cy="99.722801"
   rx="3.1949301"
   ry="3.2258101"
   class="st2"
   id="ellipse37"
   style="fill:#57a300;fill-opacity:0.2;stroke:none;stroke-width:12.23999977;stroke-linecap:butt" />
				</g>
				<g
   id="shape7207-15"
   transform="translate(1.08339,-37.1149)">
					<title
   id="title40">circle16</title>
					<ellipse
   cx="3.1949301"
   cy="99.722801"
   rx="3.1949301"
   ry="3.2258101"
   class="st2"
   id="ellipse42"
   style="fill:#57a300;fill-opacity:0.2;stroke:none;stroke-width:12.23999977;stroke-linecap:butt" />
				</g>
				<g
   id="shape7208-17"
   transform="translate(6.50036,-45.8658)">
					<title
   id="title45">circle18</title>
					<ellipse
   cx="3.1949301"
   cy="99.722801"
   rx="3.1949301"
   ry="3.2258101"
   class="st2"
   id="ellipse47"
   style="fill:#57a300;fill-opacity:0.2;stroke:none;stroke-width:12.23999977;stroke-linecap:butt" />
				</g>
				<g
   id="shape7209-19"
   transform="translate(24.5909,-42.255)">
					<title
   id="title50">circle20</title>
					<ellipse
   cx="2.43764"
   cy="100.487"
   rx="2.43764"
   ry="2.4612"
   class="st3"
   id="ellipse52"
   style="fill:#57a300;stroke:none;stroke-width:12.23999977;stroke-linecap:butt" />
				</g>
				<g
   id="shape7210-21"
   transform="translate(24.5909,-11.6267)">
					<title
   id="title55">circle22</title>
					<ellipse
   cx="2.43764"
   cy="100.487"
   rx="2.43764"
   ry="2.4612"
   class="st3"
   id="ellipse57"
   style="fill:#57a300;stroke:none;stroke-width:12.23999977;stroke-linecap:butt" />
				</g>
				<g
   id="shape7211-23"
   transform="translate(18.474,-18.0685)">
					<title
   id="title60">path24</title>
					<path
   d="m 17.11,96.55 c 0,3.71 -3.64,6.4 -8.66,6.4 -4.41,0 -7.18,-1.68 -8.45,-5.13 L 4.31,97 c 0.56,1.21 1.79,2.6 4.5,2.6 2.71,0 3.72,-1.64 3.72,-2.68 0,-2.16 -2.57,-2.9 -3.68,-3.12 -4.7,-0.95 -8.03,-2.03 -8.03,-7.47 0,-4.46 4.11,-6.05 7.63,-6.05 3.85,0 6.35,1.29 7.65,3.93 l -3.72,1.19 c -0.79,-1.34 -2.12,-2.05 -3.87,-2.05 -2.55,0 -3.23,1.78 -3.23,2.72 0,1.29 1.28,2.43 3.26,2.89 2.48,0.58 4.22,1.03 5.24,1.46 1.61,0.68 3.33,2.65 3.33,6.13 z"
   class="st3"
   id="path62"
   inkscape:connector-curvature="0"
   style="fill:#57a300;stroke:none;stroke-width:12.23999977;stroke-linecap:butt" />
				</g>
				<g
   id="shape7212-25"
   transform="translate(5.65207)">
					<title
   id="title65">path26</title>
					<path
   d="M 44.6,62.05 C 40.17,53.18 30.74,47.6 21.38,47.22 v 4.18 c 7.81,0.38 15.82,5.15 19.51,12.53 5.41,10.82 1.09,24.06 -9.63,29.52 C 21.83,98.26 9.81,94.94 3.42,86.72 L 0,89.17 c 7.56,9.9 21.82,13.78 33.13,8.02 C 45.91,90.68 51.04,74.95 44.6,62.05 Z"
   class="st3"
   id="path67"
   inkscape:connector-curvature="0"
   style="fill:#57a300;stroke:none;stroke-width:12.23999977;stroke-linecap:butt" />
				</g>
				<g
   id="shape7213-27"
   transform="translate(2.7204,-9.00252)">
					<title
   id="title70">path28</title>
					<path
   d="M 0,102.95 1.1,89.82 12.49,93.98 Z"
   class="st3"
   id="path72"
   inkscape:connector-curvature="0"
   style="fill:#57a300;stroke:none;stroke-width:12.23999977;stroke-linecap:butt" />
				</g>
			</g>
		</g>
	</g>
</svg>

<?xml version="1.0" encoding="UTF-8" standalone="no"?>
<!DOCTYPE svg PUBLIC "-//W3C//DTD SVG 1.1//EN" "http://www.w3.org/Graphics/SVG/1.1/DTD/svg11.dtd">
<!-- Generated by Microsoft Visio, SVG Export Budget.svg Page-1 -->
<svg xmlns="http://www.w3.org/2000/svg" xmlns:xlink="http://www.w3.org/1999/xlink" xmlns:ev="http://www.w3.org/2001/xml-events"
		width="1.07653in" height="1.42984in" viewBox="0 0 77.5101 102.949" xml:space="preserve" color-interpolation-filters="sRGB"
		class="st4">
	<style type="text/css">
	<![CDATA[
		.st1 {fill:#ff8c00;stroke:none;stroke-linecap:butt;stroke-width:12.24}
		.st2 {fill:#57a300;fill-opacity:0.2;stroke:none;stroke-linecap:butt;stroke-width:12.24}
		.st3 {fill:#57a300;stroke:none;stroke-linecap:butt;stroke-width:12.24}
		.st4 {fill:none;fill-rule:evenodd;font-size:12px;overflow:visible;stroke-linecap:square;stroke-miterlimit:3}
	]]>
	</style>

	<g>
		<title>Page-1</title>
		<g id="group7031-1" transform="translate(12.24,-34.0157)">
			<title>Budget</title>
			<g id="group7032-2">
				<title>g30</title>
				<g id="shape7033-3" transform="translate(16.2509,-50.2413)">
					<title>circle4</title>
					<ellipse cx="3.19493" cy="99.7228" rx="3.19493" ry="3.22581" class="st1"/>
				</g>
				<g id="shape7034-5" transform="translate(-5.59552E-14,-26.1762)">
					<title>circle6</title>
					<ellipse cx="3.19493" cy="99.7228" rx="3.19493" ry="3.22581" class="st1"/>
				</g>
				<g id="shape7035-7" transform="translate(1.08339,-37.1149)">
					<title>circle8</title>
					<ellipse cx="3.19493" cy="99.7228" rx="3.19493" ry="3.22581" class="st1"/>
				</g>
				<g id="shape7036-9" transform="translate(6.50036,-45.8658)">
					<title>circle10</title>
					<ellipse cx="3.19493" cy="99.7228" rx="3.19493" ry="3.22581" class="st1"/>
				</g>
				<g id="shape7037-11" transform="translate(16.2509,-50.2413)">
					<title>circle12</title>
					<ellipse cx="3.19493" cy="99.7228" rx="3.19493" ry="3.22581" class="st2"/>
				</g>
				<g id="shape7038-13" transform="translate(-5.59552E-14,-26.1762)">
					<title>circle14</title>
					<ellipse cx="3.19493" cy="99.7228" rx="3.19493" ry="3.22581" class="st2"/>
				</g>
				<g id="shape7039-15" transform="translate(1.08339,-37.1149)">
					<title>circle16</title>
					<ellipse cx="3.19493" cy="99.7228" rx="3.19493" ry="3.22581" class="st2"/>
				</g>
				<g id="shape7040-17" transform="translate(6.50036,-45.8658)">
					<title>circle18</title>
					<ellipse cx="3.19493" cy="99.7228" rx="3.19493" ry="3.22581" class="st2"/>
				</g>
				<g id="shape7041-19" transform="translate(24.5909,-42.255)">
					<title>circle20</title>
					<ellipse cx="2.43764" cy="100.487" rx="2.43764" ry="2.4612" class="st3"/>
				</g>
				<g id="shape7042-21" transform="translate(24.5909,-11.6267)">
					<title>circle22</title>
					<ellipse cx="2.43764" cy="100.487" rx="2.43764" ry="2.4612" class="st3"/>
				</g>
				<g id="shape7043-23" transform="translate(18.474,-18.0685)">
					<title>path24</title>
					<path d="M17.11 96.55 C17.11 100.26 13.47 102.95 8.45 102.95 C4.04 102.95 1.27 101.27 0 97.82 L4.31 97 C4.87
								 98.21 6.1 99.6 8.81 99.6 C11.52 99.6 12.53 97.96 12.53 96.92 C12.53 94.76 9.96 94.02 8.85 93.8 C4.15
								 92.85 0.82 91.77 0.82 86.33 C0.82 81.87 4.93 80.28 8.45 80.28 C12.3 80.28 14.8 81.57 16.1 84.21
								 L12.38 85.4 C11.59 84.06 10.26 83.35 8.51 83.35 C5.96 83.35 5.28 85.13 5.28 86.07 C5.28 87.36 6.56
								 88.5 8.54 88.96 C11.02 89.54 12.76 89.99 13.78 90.42 C15.39 91.1 17.11 93.07 17.11 96.55 Z"
							class="st3"/>
				</g>
				<g id="shape7044-25" transform="translate(5.65207,0)">
					<title>path26</title>
					<path d="M44.6 62.05 C40.17 53.18 30.74 47.6 21.38 47.22 L21.38 51.4 C29.19 51.78 37.2 56.55 40.89 63.93 C46.3
								 74.75 41.98 87.99 31.26 93.45 C21.83 98.26 9.81 94.94 3.42 86.72 L0 89.17 C7.56 99.07 21.82 102.95
								 33.13 97.19 C45.91 90.68 51.04 74.95 44.6 62.05 Z" class="st3"/>
				</g>
				<g id="shape7045-27" transform="translate(2.7204,-9.00252)">
					<title>path28</title>
					<path d="M0 102.95 L1.1 89.82 L12.49 93.98 L0 102.95 Z" class="st3"/>
				</g>
			</g>
		</g>
	</g>
</svg>
